X: 14
T:Bonaparte's Retreat
R:set dance
H:there are several tunes with this name "Bonaparte's Retreat."
N:named for me by someone on the list, thank you.
D:Paddy Glackin: Ceol ar an bhFidil le Paddy Glackin
O:Ireland
Z:Lesl
M:4/4
L:1/8
Q:1/4=130
K:D
GF|:DGGF GBAG|FAde f2fg|agfa gfde|fdcA BGAF|
|DGGF GBAG|FAde f2fg|agfd =cADF|1 A2GF G2GF:|2 AGGF G2de|
fefg f2df|gfga g2fg|a2bg agfd|g2af gfde|
fgag fd=cA|GBAF GFed|fefa f2 (3def|gfga g2fg|
a2bg agfd|g2af gfde|fgagfd=cA|GBAF GFEA|
D2GF GBAG|FAde f2fg|agfd =cADF|A2GF G4||

